X:1
T:Title
%%score 1 2 3 4
L:1/8
M:6/4
K:C
V:1 treble nm="Part_1"
V:2 treble-8 nm="Part_2"
V:3 treble-8 nm="Part_3"
V:4 treble-8 nm="Part_4"
V:1
 G4 F2 G2 A2 F2 | z2 _B2 A2 F2 E3 D | D6 z6 | d6 ^c4 B2 | d4 d2 z2 e4 | d4 dc B2 A4 | %6
 z2 c2 d2 e2 c2 f2 | e d2 c2 B d4 B2 | c2 d4 c2 B4 | A4 G2 A6 | z2 z2 A2 _B2 A4 | G4 F2 G4 _B2- | %12
 B2 A4 G2 d4 | c2 B4 A4 G2 | F2 E4 D2 z2 G2 | F2 _B4 A2 d3 c | A2 _B3 A G2 F4 | G12 || %18
[M:3/2] F4 F4 G4 | A2 B2 c6 B2 | B4 A6 G2 | G6 A2 F3 E | G4 z4 B2 c2 | d2 cd e2 d2 B4 | %24
 A2 d3 c B2 A3 G | B8 z4 | c4 c4 c2 B2 | c4 d6 c2 | A4 _B6 A2 | A6 G2 G2 F2 | A6 F2 !fermata!F4 :| %31
 A6 B2 c4 | d4 e6 d2 | d2 c2 A4 G4 | G4 F6 E2 | G4 A4 c3 B | GF G2 A2 ^F4 E2 | G12 |] %38
V:2
 G4 A2 B2 c2 A2 | d8 c4 | d12 | f6 e6 | d6 c6 | d6 z2 z2 d2 | e4 f2 z2 g2 a2 | f2 e4 d6 | %8
 z2 z2 f2 e2 d4 | c2 B4 A6 | c6 d4 _B2- | B2 A4 G6 | F6 G4 G2 | G6 F4 G2 | A4 c2 _B2 G4 | d8 _B4 | %16
 c2 d2 _B2 G2 A4 | G12 ||[M:3/2] A8 B4 | c4 A8 | d4 c8 | B4 A8 | G12 | g12 | f6 g2 f2 e2 | g8 g4 | %26
 a8 a2 g2 | e4 d8 | d8 c4- | c4 B8 | A4 !fermata!d8 :| f8 e4 | d4 c8 | d8 e4- | e4 d8 | B4 c8 | %36
 B4 A8 | G12 |] %38
V:3
 d6 e2 fe c2 | _B3 c dc A4 z2 | G4 B4 G3 F/E/ | D6 z6 | G6 z2 z2 A2 | A4 G4 d4 | c4 B2 z2 A4 | %7
 a4 a2 f2 g4 | e2 d4 z2 f2 g2 | e2 f2 d2 z2 d4 | e4 f2 g2 f2 d2 | z2 z2 d2 _B4 c2 | %12
 d3 c A2 B2 G2 d2 | z2 g4 c6 | z2 z2 e2 f2 g2 d2 | z2 g4 a2 d3 e | f2 gf d2 c2 d4 | B4 d8 || %18
[M:3/2] d8 e4 | f6 e2 c4 | g4 e4 f4 | d8 d4 | B2 c2 d4 g2 f2 | d8 d4 | D8 D4 | d8 e4 | f4 e8 | %27
 c4 A8 | f4 g4 e4 | f4 d4 e4 | c4 d2 c2 !fermata!A4 :| d8 c4 | G4 c4 A4 | A4 d4 B4 | c4 A4 z2 d2- | %35
 d2 e2 f6 e2 | d4 d8 | B4 d8 |] %38
V:4
 G4 D2 G2 F4 | G4 D4 A4 | D4 G4 B2 c2 | d6 A6 | B6 A6 | D4 d2 e2 f4 | g3 f d2 c4 d2- | %7
 d2 A4 B2 G4 | A2 D4 A2 B2 G2 | z2 d4 D6 | A6 G6- | G2 D4 _E6 | D6 d6 | B3 c d2 A4 B2 | %14
 c4 A2 z2 d4 | _B2 G4 F2 G4 | A2 G4 E2 D4 | d12 ||[M:3/2] D8 G4 | F8 F4 | G4 A4 F4 | G4 D8 | %22
 d4 B2 c2 d4 | G8 G4 | d8 d4 | G8 G4 | F4 A8 | A4 D8 | z4 G4 A4 | F4 G4 E4 | F4 !fermata!D8 :| %31
 D8 A4 | B4 A8 | D8 G4- | G4 D8 | G4 F8 | G4 D8 | d12 |] %38

